images/linkedin.svg

<svg width="20" height="20" viewBox="0 0 20 20" fill="none" xmlns="http://www.w3.org/2000/svg">
<g clip-path="url(#clip0_11_3698)">
<path d="M19.995 20.0001V19.9993H20V12.6643C20 9.07593 19.2275 6.31177 15.0325 6.31177C13.0158 6.31177 11.6625 7.41843 11.11 8.4676H11.0517V6.64677H7.07416V19.9993H11.2158V13.3876C11.2158 11.6468 11.5458 9.96343 13.7017 9.96343C15.8258 9.96343 15.8575 11.9501 15.8575 13.4993V20.0001H19.995Z" fill="white"/>
<path d="M0.330017 6.64746H4.47668V20H0.330017V6.64746Z" fill="white"/>
<path d="M2.40167 0C1.07583 0 0 1.07583 0 2.40167C0 3.7275 1.07583 4.82583 2.40167 4.82583C3.7275 4.82583 4.80333 3.7275 4.80333 2.40167C4.8025 1.07583 3.72667 0 2.40167 0V0Z" fill="white"/>
</g>
<defs>
<clipPath id="clip0_11_3698">
<rect width="20" height="20" fill="white"/>
</clipPath>
</defs>
</svg>

<svg xmlns="http://www.w3.org/2000/svg" width="20" height="20" fill="none" viewBox="0 0 20 20"><g fill="#fff" clip-path="url(#a)"><path d="M19.995 20H20v-7.336c0-3.588-.773-6.352-4.967-6.352-2.017 0-3.37 1.106-3.923 2.156h-.058V6.647H7.074v13.352h4.142v-6.611c0-1.741.33-3.425 2.486-3.425 2.124 0 2.156 1.987 2.156 3.536V20zM.33 6.647h4.147V20H.33zM2.402 0A2.4 2.4 0 0 0 0 2.402c0 1.326 1.076 2.424 2.402 2.424s2.401-1.098 2.401-2.424A2.403 2.403 0 0 0 2.402 0"/></g><defs><clipPath id="a"><path fill="#fff" d="M0 0h20v20H0z"/></clipPath></defs></svg>
